dist/img/reset-ico.svg

<svg width="20" height="20" viewBox="0 0 20 20" fill="none" xmlns="http://www.w3.org/2000/svg">
<path d="M9.9999 11.775L12.1999 13.975C12.3832 14.175 12.6207 14.275 12.9124 14.275C13.2041 14.275 13.4582 14.175 13.6749 13.975C13.8582 13.7917 13.9499 13.55 13.9499 13.25C13.9499 12.95 13.8582 12.7083 13.6749 12.525L11.4749 10.3L13.6749 8.05C13.8582 7.85 13.9499 7.60417 13.9499 7.3125C13.9499 7.02083 13.8582 6.78333 13.6749 6.6C13.4749 6.41667 13.2291 6.32083 12.9374 6.3125C12.6457 6.30417 12.4082 6.4 12.2249 6.6L9.9999 8.825L7.8249 6.6C7.65824 6.4 7.42074 6.30417 7.1124 6.3125C6.80407 6.32083 6.5499 6.41667 6.3499 6.6C6.1499 6.8 6.0499 7.04167 6.0499 7.325C6.0499 7.60833 6.1499 7.85 6.3499 8.05L8.5499 10.3L6.3499 12.5C6.16657 12.7 6.0749 12.9458 6.0749 13.2375C6.0749 13.5292 6.16657 13.775 6.3499 13.975C6.5499 14.175 6.7999 14.275 7.0999 14.275C7.3999 14.275 7.64157 14.175 7.8249 13.975L9.9999 11.775ZM4.3249 19.525C3.7249 19.525 3.19157 19.3 2.7249 18.85C2.25824 18.4 2.0249 17.8667 2.0249 17.25V3.45H1.7499C1.43324 3.45 1.17074 3.34583 0.962402 3.1375C0.754069 2.92917 0.649902 2.65 0.649902 2.3C0.649902 1.98333 0.754069 1.71667 0.962402 1.5C1.17074 1.28333 1.43324 1.175 1.7499 1.175H6.2999C6.2999 0.841667 6.40824 0.5625 6.6249 0.3375C6.84157 0.1125 7.11657 0 7.4499 0H12.5499C12.8832 0 13.1624 0.1125 13.3874 0.3375C13.6124 0.5625 13.7249 0.841667 13.7249 1.175H18.2249C18.5582 1.175 18.8332 1.28333 19.0499 1.5C19.2666 1.71667 19.3749 1.98333 19.3749 2.3C19.3749 2.65 19.2666 2.92917 19.0499 3.1375C18.8332 3.34583 18.5582 3.45 18.2249 3.45H17.9499V17.25C17.9499 17.8667 17.7207 18.4 17.2624 18.85C16.8041 19.3 16.2666 19.525 15.6499 19.525H4.3249Z" fill="white"/>
</svg>

<svg width="20" height="20" fill="none" xmlns="http://www.w3.org/2000/svg"><path d="m10 11.775 2.2 2.2c.183.2.42.3.712.3s.546-.1.763-.3c.183-.183.275-.425.275-.725s-.092-.542-.275-.725l-2.2-2.225 2.2-2.25c.183-.2.275-.446.275-.738 0-.291-.092-.529-.275-.712a1.1 1.1 0 0 0-.738-.287.885.885 0 0 0-.712.287L10 8.825 7.825 6.6c-.167-.2-.404-.296-.713-.287a1.133 1.133 0 0 0-.762.287c-.2.2-.3.442-.3.725s.1.525.3.725l2.2 2.25-2.2 2.2c-.183.2-.275.446-.275.738 0 .291.092.537.275.737.2.2.45.3.75.3s.542-.1.725-.3l2.175-2.2Zm-5.675 7.75c-.6 0-1.133-.225-1.6-.675-.467-.45-.7-.983-.7-1.6V3.45H1.75c-.317 0-.58-.104-.788-.313C.754 2.93.65 2.65.65 2.3c0-.317.104-.583.312-.8.209-.217.471-.325.788-.325H6.3c0-.333.108-.613.325-.838A1.1 1.1 0 0 1 7.45 0h5.1c.333 0 .612.113.837.338.225.224.338.504.338.837h4.5c.333 0 .608.108.825.325.217.217.325.483.325.8 0 .35-.108.63-.325.838-.217.208-.492.312-.825.312h-.275v13.8c0 .617-.23 1.15-.688 1.6-.458.45-.995.675-1.612.675H4.325Z" fill="#fff"/></svg>
